X:191
T:Polska
R:sl\"angpolska
H:jfr #192, #207, #224, "Flickorna dansar p{\aa} t{\aa}"
A:\"Osterg\"otland
B:Bagge 75
Z:id:hn-sp-191
M:3/4
L:1/16
K:A
e2(fe) (dc)BA a4 | e2(fe) dcBA f4 | e2(ce) d2(Bd) c2A2 |
(cB)AG (AB)cd efga | e2(fe) (dc)BA a4 | e2(fe) (dc)BA f4 |
e2(ce) d2(Bd) c2A2 | cBAG A4 A,4 :||: A3B c2cA B2(BG) |
A2c2 (BA)GF (F2E2) | A3B c2(cA) B2(BG) | (AG)Ac c2e2 e4 |
A3B c2(cA) B2(BG) | A2c2 (BA)GF (F2E2) | A3B c2(cA) B2(BG) |
(AG)Ac c2e2 e4 | (ed)cd e2a2 (f2d2) | (ed)cd B2e2 (c2A2) |
(ed)cd e2a2 (f2d2) | (BG)EG A4 A,4 :|

